!!!!SEGMENT: pl-cz--i-122_walnski-jan--salve-regina.krn
!!!cenid: 18xx:1146
!!!COM: Wański, Jan
!!!COM-rismID: pe30003295
!!!CDT: ~1800-1888/04
!!!CNT: Polish
!!!OTL: Salve Regina
!!!PDT: 1821
!!!AGN: Sacred
!!!SMS-siglum: PL-CZ
!!!SMS-shelfmark: I-122
!!!SMS-shelfwork: W
!!!SMS-variant:
!!!SMS-altvar:
!!!NIFC-rismSourceID: 300001413
!!!NIFC-rismChildID: 300001413
!!!NIFC-islandoraID: pl-cz:31342
!!!URL-pdf-islandora: https://repozytorium.nifc.pl/islandora/object/pl-cz%3A31342/datastream/PDF/view
!!!URL-scan: https://polish.musicsources.pl/pl/lokalizacje/galeria/rekopisy/6710/1 @EN{Scan on Polish Music Sources Website} @PL{Skany w portalu Dziedzictwo Muzyki Polskiej w otwartym dostępie}
!!!ONB-nifc:
!!!AIN: 1 alto 1 bass 1 cello 1 cor 1 soprn 1 tenor 2 violn
!!!key: d
**kern	**fba	**dynam	**kern	**dynam	**kern	**dynam	**kern	**text	**dynam	**kern	**text	**dynam	**kern	**text	**dynam	**kern	**text	**dynam	**kern	**kern	**dynam
*part8	*part8	*part8	*part7	*part7	*part6	*part6	*part5	*part5	*part5	*part4	*part4	*part4	*part3	*part3	*part3	*part2	*part2	*part2	*part1	*part1	*part1
*staff9	*staff9	*	*staff8	*	*staff7	*	*staff6	*staff6	*	*staff5	*staff5	*	*staff4	*staff4	*	*staff3	*staff3	*	*staff2	*staff1	*
*I"Organo Violincelo	*	*	*I"Violino Secu(n)do	*	*I"Violino Primo	*	*I"Baſso.	*	*	*I"Tenore	*	*	*I"Alto	*	*	*I"Canto	*	*	*I"Corno Primo et Secundo in. F	*	*
*I'org vln	*	*	*I'vl 2	*	*I'vl 1	*	*I'B	*	*	*I'T	*	*	*I'A	*	*	*I'S	*	*	*I'cor 1 et 2 in F	*	*
*Icello	*	*	*Ivioln	*	*Ivioln	*	*Ibass	*	*	*Itenor	*	*	*Ialto	*	*	*Isoprn	*	*	*Icor	*	*
*ICstr	*	*	*ICstr	*	*ICstr	*	*ICvox	*	*	*ICvox	*	*	*ICvox	*	*	*ICvox	*	*	*ICbras	*	*
*IGcont	*	*	*IGacmp	*	*IGacmp	*	*IGcoro	*	*	*IGcoro	*	*	*IGcoro	*	*	*IGcoro	*	*	*IGacmp	*	*
*clefF4	*	*	*clefG2	*	*clefG2	*	*clefF4	*	*	*clefC4	*	*	*clefC3	*	*	*clefC1	*	*	*clefG2	*clefG2	*
*	*	*	*	*	*	*	*	*	*	*	*	*	*	*	*	*	*	*	*ITrd4c7	*ITrd4c7	*
*k[b-]	*	*	*k[b-]	*	*k[b-]	*	*k[b-]	*	*	*k[b-]	*	*	*k[b-]	*	*	*k[b-]	*	*	*k[b-]	*	*
*d:	*	*	*d:	*	*d:	*	*d:	*	*	*d:	*	*	*d:	*	*	*d:	*	*	*d:	*	*
*M3/4	*	*	*M3/4	*	*M3/4	*	*M3/4	*	*	*M3/4	*	*	*M3/4	*	*	*M3/4	*	*	*M3/4	*M3/4	*
*all\right	*	*	*all\right	*	*all\right	*	*all\right	*	*	*all\right	*	*	*all\right	*	*	*all\right	*	*	*all\right	*all\right	*
!LO:TX:a:Bi:t=Tarde	!	!	!LO:TX:a:Bi:t=Tarde	!LO:DY:rj	!LO:TX:a:Bi:t=Tarde	!LO:DY:rj	!LO:TX:a:Bi:t=Tarde	!	!	!LO:TX:a:Bi:t=Tarde	!	!	!LO:TX:a:Bi:t=Tarde	!	!	!LO:TX:a:Bi:t=Tarde	!	!	!	!LO:TX:a:Bi:t=Tarde	!
16r	.	.	16r	f	16A/	f	16r	.	.	16r	.	.	16r	.	.	16r	.	.	16r	16r	.
=1	=1	=1	=1	=1	=1	=1	=1	=1	=1	=1	=1	=1	=1	=1	=1	=1	=1	=1	=1	=1	=1
!	!	!LO:DY:rj	!	!	!	!	!LO:TX:a:t=4	!	!	!LO:TX:a:t=4	!	!	!LO:TX:a:t=4	!	!	!LO:TX:a:t=4	!	!	!	!	!
4D\|	.	f	4d/	.	8d/	.	0.r	.	.	0.r	.	.	0.r	.	.	0.r	.	.	4A/	4a\	f
!	!	!	!	!	!LO:N:vis=8	!	!	!	!	!	!	!	!	!	!	!	!	!	!	!	!
.	.	.	.	.	16r	.	.	.	.	.	.	.	.	.	.	.	.	.	.	.	.
.	.	.	.	.	16f/	.	.	.	.	.	.	.	.	.	.	.	.	.	.	.	.
4r	.	.	8r	.	8a/	.	.	.	.	.	.	.	.	.	.	.	.	.	4r	4r	.
.	.	.	16r	.	16r	.	.	.	.	.	.	.	.	.	.	.	.	.	.	.	.
.	.	.	16B-/	.	16g/	.	.	.	.	.	.	.	.	.	.	.	.	.	.	.	.
8r	.	.	4A/	.	8f/	.	.	.	.	.	.	.	.	.	.	.	.	.	4r	4r	.
16r	.	.	.	.	16r	.	.	.	.	.	.	.	.	.	.	.	.	.	.	.	.
16AA/|>	.	.	.	.	16e/	.	.	.	.	.	.	.	.	.	.	.	.	.	.	.	.
=2	=2	=2	=2	=2	=2	=2	=2	=2	=2	=2	=2	=2	=2	=2	=2	=2	=2	=2	=2	=2	=2
4D\|	.	.	4d/	.	8d/	.	.	.	.	.	.	.	.	.	.	.	.	.	4A/	4a\	.
.	.	.	.	.	16r	.	.	.	.	.	.	.	.	.	.	.	.	.	.	.	.
.	.	.	.	.	16f/	.	.	.	.	.	.	.	.	.	.	.	.	.	.	.	.
4r	.	.	8r	.	8a/	.	.	.	.	.	.	.	.	.	.	.	.	.	4r	4r	.
.	.	.	16r	.	16r	.	.	.	.	.	.	.	.	.	.	.	.	.	.	.	.
.	.	.	16B-/	.	16g/	.	.	.	.	.	.	.	.	.	.	.	.	.	.	.	.
8r	.	.	4A/	.	8f/	.	.	.	.	.	.	.	.	.	.	.	.	.	4r	4r	.
16r	.	.	.	.	16r	.	.	.	.	.	.	.	.	.	.	.	.	.	.	.	.
16AA/	.	.	.	.	16e/	.	.	.	.	.	.	.	.	.	.	.	.	.	.	.	.
=3	=3	=3	=3	=3	=3	=3	=3	=3	=3	=3	=3	=3	=3	=3	=3	=3	=3	=3	=3	=3	=3
4D\	.	.	4d/	.	8d/	.	.	.	.	.	.	.	.	.	.	.	.	.	4A/	4a\	.
.	.	.	.	.	16r	.	.	.	.	.	.	.	.	.	.	.	.	.	.	.	.
.	.	.	.	.	16a/	.	.	.	.	.	.	.	.	.	.	.	.	.	.	.	.
4r	.	.	8r	.	8dd\	.	.	.	.	.	.	.	.	.	.	.	.	.	4r	4r	.
.	.	.	16r	.	16r	.	.	.	.	.	.	.	.	.	.	.	.	.	.	.	.
.	.	.	16c/	.	16cc\	.	.	.	.	.	.	.	.	.	.	.	.	.	.	.	.
4r	.	.	(8B-/L	.	8b-\L	.	.	.	.	.	.	.	.	.	.	.	.	.	4r	4r	.
.	.	.	8A/J)	.	8a\J	.	.	.	.	.	.	.	.	.	.	.	.	.	.	.	.
=4	=4	=4	=4	=4	=4	=4	=4	=4	=4	=4	=4	=4	=4	=4	=4	=4	=4	=4	=4	=4	=4
4AA/	.	.	8G#X/L	.	8g#X/L	.	.	.	.	.	.	.	.	.	.	.	.	.	4A/	4a\	.
.	.	.	8A/J	.	8a/J	.	.	.	.	.	.	.	.	.	.	.	.	.	.	.	.
4A\	.	.	4A/	.	4A/	.	.	.	.	.	.	.	.	.	.	.	.	.	4A/	4a\	.
4r	.	.	4r	.	4r	.	.	.	.	.	.	.	.	.	.	.	.	.	4r	4r	.
=5	=5	=5	=5	=5	=5	=5	=5	=5	=5	=5	=5	=5	=5	=5	=5	=5	=5	=5	=5	=5	=5
*	*	*	*	*	*	*	*2\right	*	*	*2\right	*	*	*2\right	*	*	*2\right	*	*	*	*	*
!LO:TX:a:t=3	!	!	!LO:TX:a:t=3	!	!LO:TX:a:t=3	!	!	!	!LO:DY:b:rj:t=p&colon;	!	!	!LO:DY:b:rj	!	!	!LO:DY:b:rj	!	!	!LO:DY:b:rj:t=p.	!LO:TX:a:t=3	!LO:TX:a:t=3	!
1.r	.	.	1.r	.	1.r	.	2.D\	Sal-	p	2.d	Sal-	p	2.a\	Sal-	p	2.ff\	Sal-	p	1.r	1.r	.
=6	=6	=6	=6	=6	=6	=6	=6	=6	=6	=6	=6	=6	=6	=6	=6	=6	=6	=6	=6	=6	=6
.	.	.	.	.	.	.	2C#XL\	-ve	.	[2eL\	-ve	.	[2b-L\	-ve	.	[2ggL\	-ve	.	.	.	.
.	.	.	.	.	.	.	8C#J\	.	.	8eJ\]	.	.	8b-J\]	.	.	8ggJ\]	.	.	.	.	.
!	!	!	!	!	!	!	!	!	!LO:DY:b	!	!	!LO:DY:b:rj	!	!	!LO:DY:b	!	!	!LO:DY:b	!	!	!
.	.	.	.	.	.	.	8D\	Re-	f	8d\	Re-	f	8a\	Re-	f	8ff\	Re-	f	.	.	.
=7	=7	=7	=7	=7	=7	=7	=7	=7	=7	=7	=7	=7	=7	=7	=7	=7	=7	=7	=7	=7	=7
2.r	.	.	2.r	.	2.r	.	4AA/	-gi-	.	4c#X\	-gi-	.	4g\	-gi-	.	4ee\	-gi-	.	2.r	2.r	.
.	.	.	.	.	.	.	4D/	-na	.	4d\	-na	.	4f\	-na	.	4dd\	-na	.	.	.	.
.	.	.	.	.	.	.	4r	.	.	4r	.	.	4r	.	.	4r	.	.	.	.	.
!	!	!	!	!	!LO:LB:g=original	!	!	!	!	!	!	!	!	!	!	!	!	!	!	!	!
=8	=8	=8	=8	=8	=8	=8	=8	=8	=8	=8	=8	=8	=8	=8	=8	=8	=8	=8	=8	=8	=8
!	!	!LO:HP:a	!	!LO:DY:rj:t=poco for	!LO:TX:b:i:t=Dolce	!	!	!	!	!LO:TX:a:t=2	!	!	!	!	!	!	!	!	!	!	!
4D\	.	f <	2.d/	f	(8aa\L	f	1.r	.	.	1.r	.	.	1.r	.	.	1.r	.	.	4A/	4a\	.
.	.	.	.	.	8a\)	.	.	.	.	.	.	.	.	.	.	.	.	.	.	.	.
4F\	6	.	.	.	8a\|	.	.	.	.	.	.	.	.	.	.	.	.	.	4A/	4a\	.
.	.	.	.	.	8a\|	.	.	.	.	.	.	.	.	.	.	.	.	.	.	.	.
4F#X\	.	[[	.	.	(8dd\	.	.	.	.	.	.	.	.	.	.	.	.	.	4r	4r	.
.	.	.	.	.	8cc\J)	.	.	.	.	.	.	.	.	.	.	.	.	.	.	.	.
=9	=9	=9	=9	=9	=9	=9	=9	=9	=9	=9	=9	=9	=9	=9	=9	=9	=9	=9	=9	=9	=9
!	!	!	!	!	!	!LO:HP:a	!	!	!	!	!	!	!	!	!	!	!	!	!LO:TX:a:t=4	!LO:TX:a:t=4	!
4G\	6	.	4d/	.	8a\L	<	.	.	.	.	.	.	.	.	.	.	.	.	0.r	0.r	.
.	.	.	.	.	8b-\J	.	.	.	.	.	.	.	.	.	.	.	.	.	.	.	.
4GG/	.	.	4d/	.	4b-\	[	.	.	.	.	.	.	.	.	.	.	.	.	.	.	.
4r	.	.	4r	.	4r	.	.	.	.	.	.	.	.	.	.	.	.	.	.	.	.
=10	=10	=10	=10	=10	=10	=10	=10	=10	=10	=10	=10	=10	=10	=10	=10	=10	=10	=10	=10	=10	=10
!LO:TX:a:t=1	!	!	!	!	!	!	!	!	!LO:DY:b:rj	!	!	!	!	!	!LO:DY:b:rj	!	!	!LO:DY:b:rj	!	!	!
2.r	.	.	2.r	.	4r	.	4C#X/	Ma-	f	4e\	Ma-	.	4b-\	Ma-	f	4gg\	Ma-	f	.	.	.
.	.	.	.	.	4r	.	4C#/	-ter	.	4e\	-ter	.	4b-\	-ter	.	4gg\	-ter	.	.	.	.
.	.	.	.	.	8r	.	4r	.	.	4r	.	.	4r	.	.	4r	.	.	.	.	.
.	.	.	.	.	8gg\	.	.	.	.	.	.	.	.	.	.	.	.	.	.	.	.
!LO:LB:g=original	!	!	!	!	!	!	!	!	!	!	!	!	!	!	!	!	!	!	!	!	!
=11	=11	=11	=11	=11	=11	=11	=11	=11	=11	=11	=11	=11	=11	=11	=11	=11	=11	=11	=11	=11	=11
*	*	*	*2\right	*	*	*	*	*	*	*	*	*	*	*	*	*	*	*	*	*	*
!	!	!	!	!	!	!	!LO:TX:a:t=1	!	!	!LO:TX:a:t=1	!	!	!LO:TX:a:t=1	!	!	!LO:TX:a:t=1	!	!	!	!	!
2GG/	3	.	2b-\	.	8.bb-\L	.	2.r	.	.	2.r	.	.	2.r	.	.	2.r	.	.	.	.	.
.	.	.	.	.	16aa\Jk	.	.	.	.	.	.	.	.	.	.	.	.	.	.	.	.
.	.	.	.	.	4gg\	.	.	.	.	.	.	.	.	.	.	.	.	.	.	.	.
!	!	!	!	!	!	!	!	!	!LO:DY:b	!	!	!	!	!	!LO:DY:b	!	!	!	!	!	!
4r	.	.	4r	.	4r	.	.	.	p	.	.	.	.	.	p	.	.	.	.	.	.
!	!	!	!LO:LB:g=original	!	!	!	!	!	!	!	!	!	!	!	!	!	!	!	!	!	!
=12	=12	=12	=12	=12	=12	=12	=12	=12	=12	=12	=12	=12	=12	=12	=12	=12	=12	=12	=12	=12	=12
!	!	!LO:DY:rj	!	!	!	!	!	!	!	!	!	!LO:DY:b:rj	!	!	!	!	!	!	!	!	!
2C#X/	5	p	8r	.	8r	p	4C#X/	Mi-	.	4e\	Mi-	p	4b-\	Mi-	.	4gg\	Mi-	.	.	.	.
.	.	.	8b-\L	p	8gg\L	.	.	.	.	.	.	.	.	.	.	.	.	.	.	.	.
.	6	.	8b-\	.	8gg\	.	4C#/	-se-	.	4e\	-ſe-	.	4b-\	-se-	.	4gg\	-se-	.	.	.	.
.	.	.	8b-\	.	8gg\	.	.	.	.	.	.	.	.	.	.	.	.	.	.	.	.
4D/	8	.	8a\	.	8ff\	.	4D/	-ri-	.	4d\	-ri-	.	4a\	-ri-	.	4ff\	-ri-	.	.	.	.
.	.	.	8a\J	.	8ff\J	.	.	.	.	.	.	.	.	.	.	.	.	.	.	.	.
=13	=13	=13	=13	=13	=13	=13	=13	=13	=13	=13	=13	=13	=13	=13	=13	=13	=13	=13	=13	=13	=13
*	*	*	*	*	*	*	*	*	*	*	*	*	*	*	*	*	*	*	*	*	*^
*	*	*	*	*	*	*	*	*	*	*	*	*	*	*	*	*	*	*	*	*2\right	*	*
!	!	!	!	!	!	!	!LO:SIC:v:=4.C#/	!	!	!	!	!	!	!	!	!	!	!	!	!	!LO:DY:rj:t=p	!LO:DY:b=2:rj:t=p
2C/	5	.	8r	.	8r	.	4.C/	-cor-	.	4.e\	-cor-	.	4.g\	-cor-	.	4.ee\	-cor-	.	2A/	2a\	p	p
.	.	.	8g/L	.	8ee\L	.	.	.	.	.	.	.	.	.	.	.	.	.	.	.	.	.
.	6	.	8g/	.	8ee\	.	.	.	.	.	.	.	.	.	.	.	.	.	.	.	.	.
!	!	!	!	!	!	!	!LO:SIC:v:=8C#/	!	!	!	!	!	!	!	!	!	!	!	!	!	!	!
.	.	.	8g/	.	8ee\	.	8C/	-di-	.	8e\	-di-	.	8g\	-di-	.	8ee\	-di-	.	.	.	.	.
4D/	8	.	8f/	.	8dd\	.	4D/	-ae	.	4d\	-ae	.	4f\	-ae	.	4dd\	-ae	.	4A/	4a\	.	.
.	.	.	8f/J	.	8dd\J	.	.	.	.	.	.	.	.	.	.	.	.	.	.	.	.	.
*	*	*	*	*	*	*	*	*	*	*	*	*	*	*	*	*	*	*	*	*	*v	*v
=14	=14	=14	=14	=14	=14	=14	=14	=14	=14	=14	=14	=14	=14	=14	=14	=14	=14	=14	=14	=14	=14
2E\	.	.	8r	.	8r	.	4D\	Mi-	.	4e\	Mi-	.	4a\	Mi-	.	4dd\	Mi-	.	2.A/	2.a\	.
.	.	.	8f/	.	8dd\	.	.	.	.	.	.	.	.	.	.	.	.	.	.	.	.
*	*	*	*	*	*2\right	*	*	*	*	*	*	*	*	*	*	*	*	*	*	*	*
*	*	*	*tremolo	*	*tremolo	*	*	*	*	*	*	*	*	*	*	*	*	*	*	*	*
.	.	.	8f/L	.	8dd\L	.	4D\	-se-	.	4e\	-se-	.	4a\	-se-	.	4dd\	-se-	.	.	.	.
.	.	.	8f/	.	8dd\	.	.	.	.	.	.	.	.	.	.	.	.	.	.	.	.
4F\	6	.	8f/	.	8dd\	.	4F\	-ri-	.	4e\	-ri-	.	4a\	-ri-	.	4dd\	-ri-	.	.	.	.
.	.	.	8f/J	.	8dd\J	.	.	.	.	.	.	.	.	.	.	.	.	.	.	.	.
*	*	*	*Xtremolo	*	*Xtremolo	*	*	*	*	*	*	*	*	*	*	*	*	*	*	*	*
!	!	!	!	!	!	!	!LO:LB:g=original	!	!	!LO:LB:g=original	!	!	!LO:LB:g=original	!	!	!LO:LB:g=original	!	!	!LO:LB:g=original	!LO:LB:g=original	!
=15	=15	=15	=15	=15	=15	=15	=15	=15	=15	=15	=15	=15	=15	=15	=15	=15	=15	=15	=15	=15	=15
4G\	.	.	8r	.	8r	.	2G\	-cor-	.	2e\	-cor-	.	2b-\	-cor-	.	2dd\	-cor-	.	4r	4r	.
.	.	.	8e/	.	8dd\L	.	.	.	.	.	.	.	.	.	.	.	.	.	.	.	.
*	*	*	*tremolo	*	*	*	*	*	*	*	*	*	*	*	*	*	*	*	*	*	*
4A\	4	.	8e/L	.	8dd\	.	.	.	.	.	.	.	.	.	.	.	.	.	4r	4r	.
.	.	.	8e/	.	8dd\	.	.	.	.	.	.	.	.	.	.	.	.	.	.	.	.
4AA/	#	.	8e/	.	8cc#X\	.	4A\	-di-	.	4e\	-di-	.	4a\	-di-	.	4cc#X\	-di-	.	4A/	4a\	.
.	.	f	8e/J	.	8cc#\J	.	.	.	.	.	.	.	.	.	.	.	.	.	.	.	.
*	*	*	*Xtremolo	*	*	*	*	*	*	*	*	*	*	*	*	*	*	*	*	*	*
=16	=16	=16	=16	=16	=16	=16	=16	=16	=16	=16	=16	=16	=16	=16	=16	=16	=16	=16	=16	=16	=16
8D\L	.	.,	4f/	.	4dd\	.	4D\	-ae	.	4d\	-ae	.	4a\	-ae	.	4dd\	-ae	.	4A/	4a\	.
8d\	.	.	.	.	.	.	.	.	.	.	.	.	.	.	.	.	.	.	.	.	.
8c\	.	.	4r	.	4r	.	4r	.	.	4r	.	.	4r	.	.	4r	.	.	4r	4r	.
8B-\	.	.	.	.	.	.	.	.	.	.	.	.	.	.	.	.	.	.	.	.	.
!	!	!	!	!	!	!	!	!	!	!	!	!	!	!	!	!LO:TX:a:i:t=Solo	!	!	!	!	!
8A\	.	.	4r	.	4r	.	4r	.	.	4r	.	.	4r	.	.	4r	.	.	4r	4r	.
8G\J	.	.	.	.	.	.	.	.	.	.	.	.	.	.	.	.	.	.	.	.	.
!	!	!	!	!	!LO:LB:g=original	!	!	!	!	!	!	!	!	!	!	!	!	!	!	!	!
=17	=17	=17	=17	=17	=17	=17	=17	=17	=17	=17	=17	=17	=17	=17	=17	=17	=17	=17	=17	=17	=17
!	!	!	!	!	!	!	!LO:TX:a:t=7	!	!	!LO:TX:a:t=7	!	!	!LO:TX:a:t=7	!	!	!	!	!	!LO:TX:a:t=7	!LO:TX:a:t=7	!
4F\	.	p	8r	.	8r	.	0.r	.	.	0.r	.	.	0.r	.	.	2ff\	Vi-	.	0.r	0.r	.
!	!	!	!	!	!	!LO:DY:rj	!	!	!	!	!	!	!	!	!	!	!	!	!	!	!
.	.	.	8a/	.	8ccn\	p	.	.	.	.	.	.	.	.	.	.	.	.	.	.	.
*	*	*	*tremolo	*	*tremolo	*	*	*	*	*	*	*	*	*	*	*	*	*	*	*	*
4r	.	.	8a/L	.	8cc\L	.	.	.	.	.	.	.	.	.	.	.	.	.	.	.	.
.	.	.	8a/	.	8cc\	.	.	.	.	.	.	.	.	.	.	.	.	.	.	.	.
4r	.	.	8a/	.	8cc\	.	.	.	.	.	.	.	.	.	.	4ff\	-ta	.	.	.	.
.	.	.	8a/J	.	8cc\J	.	.	.	.	.	.	.	.	.	.	.	.	.	.	.	.
*	*	*	*Xtremolo	*	*Xtremolo	*	*	*	*	*	*	*	*	*	*	*	*	*	*	*	*
=18	=18	=18	=18	=18	=18	=18	=18	=18	=18	=18	=18	=18	=18	=18	=18	=18	=18	=18	=18	=18	=18
4E-X\	6 4 4	.	8r	.	8r	.	.	.	.	.	.	.	.	.	.	4ff\	Vi-	.	.	.	.
.	.	.	8a/	.	8cc\	.	.	.	.	.	.	.	.	.	.	.	.	.	.	.	.
*	*	*	*tremolo	*	*tremolo	*	*	*	*	*	*	*	*	*	*	*	*	*	*	*	*
4r	.	.	8a/L	.	8cc\L	.	.	.	.	.	.	.	.	.	.	4.ff\	-ta	.	.	.	.
.	.	.	8a/	.	8cc\	.	.	.	.	.	.	.	.	.	.	.	.	.	.	.	.
4r	.	.	8a/	.	8cc\	.	.	.	.	.	.	.	.	.	.	.	.	.	.	.	.
.	.	.	8a/J	.	8cc\J	.	.	.	.	.	.	.	.	.	.	8ff#X\	dul-	.	.	.	.
*	*	*	*Xtremolo	*	*Xtremolo	*	*	*	*	*	*	*	*	*	*	*	*	*	*	*	*
=19	=19	=19	=19	=19	=19	=19	=19	=19	=19	=19	=19	=19	=19	=19	=19	=19	=19	=19	=19	=19	=19
4D\	.	.	8a/L	.	(8cc\L	.	.	.	.	.	.	.	.	.	.	8aa\L|	-ce-	.	.	.	.
.	.	.	8g/J	.	8b-\J)	.	.	.	.	.	.	.	.	.	.	[8gg\J	.	.	.	.	.
4G\	6	.	4g/	.	4b-\|	.	.	.	.	.	.	.	.	.	.	4gg\]	-do	.	.	.	.
4r	.	.	4r	.	4r	.	.	.	.	.	.	.	.	.	.	8r	.	.	.	.	.
.	.	.	.	.	.	.	.	.	.	.	.	.	.	.	.	8bb-\	dul-	.	.	.	.
=20	=20	=20	=20	=20	=20	=20	=20	=20	=20	=20	=20	=20	=20	=20	=20	=20	=20	=20	=20	=20	=20
!	!	!	!LO:TX:b:i:t=Dolce	!	!LO:TX:b:i:t=Dol poco	!	!	!	!	!	!	!	!	!	!	!	!	!	!	!	!
4GG/	.	.	4r	.	4r	.	.	.	.	.	.	.	.	.	.	(8.bb-\L	-ce-	.	.	.	.
.	.	.	.	.	.	.	.	.	.	.	.	.	.	.	.	16aa\Jk)	.	.	.	.	.
4G\	.	.	8r	.	8r	.	.	.	.	.	.	.	.	.	.	4gg\	-do	.	.	.	.
.	.	.	.	.	8qccc#X/	.	.	.	.	.	.	.	.	.	.	.	.	.	.	.	.
.	.	.	8bb-\L	.	8ddd|\L	.	.	.	.	.	.	.	.	.	.	.	.	.	.	.	.
!	!	!	!	!	!LO:TX:t=P:problem=diminuendolike accent	!	!	!	!	!	!	!	!	!	!	!	!	!	!	!	!
4r	.	.	8.bb-\	.	(8ddd^\	.	.	.	.	.	.	.	.	.	.	8r	.	.	.	.	.
.	.	.	.	.	8cccn\J)	.	.	.	.	.	.	.	.	.	.	8bb-\	dul-	.	.	.	.
.	.	.	16aa\Jk	.	.	.	.	.	.	.	.	.	.	.	.	.	.	.	.	.	.
!LO:LB:g=original	!	!	!	!	!	!	!	!	!	!	!	!	!	!	!	!	!	!	!	!	!
=21	=21	=21	=21	=21	=21	=21	=21	=21	=21	=21	=21	=21	=21	=21	=21	=21	=21	=21	=21	=21	=21
4GG/	.	.	4gg\	.	4bb-\	.	1.r	.	.	1.r	.	.	1.r	.	.	(8.bb-\L	-ce-	.	1.r	1.r	.
.	.	.	.	.	.	.	.	.	.	.	.	.	.	.	.	16aa\Jk)	.	.	.	.	.
4G\	.	.	8r	.	8r	.	.	.	.	.	.	.	.	.	.	4gg\	-do	.	.	.	.
.	.	.	.	.	8qccc#X/	.	.	.	.	.	.	.	.	.	.	.	.	.	.	.	.
.	.	.	8bb-\L	.	8ddd\L	.	.	.	.	.	.	.	.	.	.	.	.	.	.	.	.
!	!	!	!	!	!LO:TX:t=P:problem=diminuendolike accent	!	!	!	!	!	!	!	!	!	!	!	!	!	!	!	!
4r	.	.	8.bb-\	.	8ddd^\	.	.	.	.	.	.	.	.	.	.	4r	.	.	.	.	.
.	.	.	.	.	8cccn\J	.	.	.	.	.	.	.	.	.	.	.	.	.	.	.	.
.	.	.	16aa\Jk	.	.	.	.	.	.	.	.	.	.	.	.	.	.	.	.	.	.
!	!	!	!LO:LB:g=original	!	!	!	!	!	!	!	!	!	!	!	!	!	!	!	!	!	!
=22	=22	=22	=22	=22	=22	=22	=22	=22	=22	=22	=22	=22	=22	=22	=22	=22	=22	=22	=22	=22	=22
!	!	!	!	!	!	!	!	!	!	!	!	!	!	!	!	!	!	!LO:DY:b:rj	!	!	!
4GG/	.	.	8gg\L	.	(8bb-\L	.	.	.	.	.	.	.	.	.	.	8gg\L	et	f	.	.	.
.	.	.	8ff#X\	.	8aa\	.	.	.	.	.	.	.	.	.	.	8ff#X\J	.	.	.	.	.
!	!	!LO:HP:a	!	!	!	!	!	!	!	!	!	!	!	!	!	!	!	!	!	!	!
4G\	.	<	8gg\	.	8gg\	.	.	.	.	.	.	.	.	.	.	8gg\L	spes	.	.	.	.
.	.	.	8aa\J	.	8aa\J)	.	.	.	.	.	.	.	.	.	.	8aa\J	.	.	.	.	.
8A\L	.	.	4dd\	.	(16bb-\LL	.	.	.	.	.	.	.	.	.	.	16bb-\LL	no-	.	.	.	.
.	.	.	.	.	16aa\	.	.	.	.	.	.	.	.	.	.	16aa\JJ	.	.	.	.	.
8Bn\J	.	[[	.	.	16gg\	.	.	.	.	.	.	.	.	.	.	16gg\LL	-stra	.	.	.	.
.	.	.	.	.	16ff\JJ)	.	.	.	.	.	.	.	.	.	.	16ff#\JJ	.	.	.	.	.
=23	=23	=23	=23	=23	=23	=23	=23	=23	=23	=23	=23	=23	=23	=23	=23	=23	=23	=23	=23	=23	=23
4c\	.	.	4cc\	.	8ff\L	.	2.r	.	.	2.r	.	.	2.r	.	.	8ff\L	Sal-	.	2.r	2.r	.
.	.	.	.	.	8ee\J	.	.	.	.	.	.	.	.	.	.	8een\J	.	.	.	.	.
4C/	.	.	4g/	.	4ee\	.	.	.	.	.	.	.	.	.	.	4ee\	-ve	.	.	.	.
4r	.	.	4r	.	4r	f	.	.	.	.	.	.	.	.	.	4r	.	.	.	.	.
!	!	!	!	!	!	!	!	!	!	!	!	!	!	!	!	!LO:LB:g=original	!	!	!	!	!
=24	=24	=24	=24	=24	=24	=24	=24	=24	=24	=24	=24	=24	=24	=24	=24	=24	=24	=24	=24	=24	=24
*	*	*	*	*	*	*	*	*	*	*	*	*	*	*	*	*	*	*	*	*	*^
!	!	!LO:DY:rj	!	!LO:DY:rj	!	!	!	!	!LO:DY:b:rj	!	!	!LO:DY:b:rj	!	!	!LO:DY:b:rj	!	!	!LO:DY:b:rj	!	!	!LO:DY:rj	!LO:DY:b=2:rj
4F\	.	f	8a/	f	8f/	.	4F\	Ad	f	4c\	Ad	f	4a\	Ad	f	4ff\	Ad	f	4f\	4a\	f	f
.	.	.	4a/	.	4ff\	.	.	.	.	.	.	.	.	.	.	.	.	.	.	.	.	.
4A\	.	.	.	.	.	.	4A\	te	.	4c\	te	.	4a\	te	.	4ff\	te	.	4f\	4a\	.	.
.	.	.	4a/	.	4ff\	.	.	.	.	.	.	.	.	.	.	.	.	.	.	.	.	.
4F\	.	.	.	.	.	.	4F\	cla-	.	4c\	cla-	.	4a\	cla-	.	4ff\	cla-	.	4f\	4a\	.	.
.	.	.	8a/	.	8ff\	.	.	.	.	.	.	.	.	.	.	.	.	.	.	.	.	.
*	*	*	*	*	*	*	*	*	*	*	*	*	*	*	*	*	*	*	*	*	*v	*v
!	!	!	!	!	!LO:LB:g=original	!	!	!	!	!	!	!	!	!	!	!	!	!	!	!	!
=25	=25	=25	=25	=25	=25	=25	=25	=25	=25	=25	=25	=25	=25	=25	=25	=25	=25	=25	=25	=25	=25
4c\	.	.	4b-\	.	(16ff\LL	.	4c\	-ma-	.	4c\	-ma-	.	4b-\	-ma-	.	4ee\	-ma-	.	4c/	4g\	.
.	.	.	.	.	16ee\)	.	.	.	.	.	.	.	.	.	.	.	.	.	.	.	.
.	.	.	.	.	(16ee\	.	.	.	.	.	.	.	.	.	.	.	.	.	.	.	.
.	.	.	.	.	16gg\JJ)	.	.	.	.	.	.	.	.	.	.	.	.	.	.	.	.
!	!	!	!	!	!LO:TX:t=P:problem=mixed beam	!	!	!	!	!	!	!	!	!	!	!	!	!	!	!	!
4C/	.	.	4b-\	.	16gg\LL	.	4C/	-muſ	.	4c\	-muſ	.	4b-\	-muſ	.	4ee\	-muſ	.	4c/	4g\	.
.	.	.	.	.	16bb-\	.	.	.	.	.	.	.	.	.	.	.	.	.	.	.	.
.	.	.	.	.	16bb-\	.	.	.	.	.	.	.	.	.	.	.	.	.	.	.	.
.	.	.	.	.	16b-/JJ	.	.	.	.	.	.	.	.	.	.	.	.	.	.	.	.
4r	.	.	4r	.	16b-\LL	.	4r	.	.	4r	.	.	4r	.	.	4r	.	.	4r	4r	.
.	.	.	.	.	16a\	.	.	.	.	.	.	.	.	.	.	.	.	.	.	.	.
.	.	.	.	.	16dd\	.	.	.	.	.	.	.	.	.	.	.	.	.	.	.	.
.	.	.	.	.	16cc\JJ	.	.	.	.	.	.	.	.	.	.	.	.	.	.	.	.
=26	=26	=26	=26	=26	=26	=26	=26	=26	=26	=26	=26	=26	=26	=26	=26	=26	=26	=26	=26	=26	=26
!LO:TX:t=P:problem=takty nr 26-27 oznaczone znakiem repetycji	!	!	!LO:TX:t=P:problem=takty nr 26-27 oznaczone znakiem repetycji	!	!	!	!	!	!	!	!	!	!LO:N:vis=8	!	!	!	!	!	!	!	!
4F\yy	.	.	8a/yy	.	8f/	.	4F\	e-	.	4c\	e-	.	4a\	e-	.	4ff\	e-	.	4f\	4a\	.
.	.	.	4a/yy	.	4ff\	.	.	.	.	.	.	.	.	.	.	.	.	.	.	.	.
4A\yy	.	.	.	.	.	.	8A\	-xul-	.	8c\	-xul-	.	8a\	-xul-	.	8ff\	-xul-	.	4f\	4a\	.
.	.	.	4a/yy	.	4ff\	.	8A\	-les	.	8c\	-les	.	8a\	-les	.	8ff\	-les	.	.	.	.
4F\yy	.	.	.	.	.	.	8F\	Fi-	.	8c\	Fi-	.	8a\	Fi-	.	8ff\	Fi-	.	4f\	4a\	.
!	!	!	!	!	!	!	!	!	!	!LO:N:vis=8	!	!	!	!	!	!	!	!	!	!	!
.	.	.	8a/yy	.	8ff\	.	16F\	-li-	.	16c\	-li-	.	16a\	-li-	.	16ff\	-li-	.	.	.	.
!	!	!	!	!	!	!	!	!	!	!LO:N:vis=8	!	!	!	!	!	!	!	!	!	!	!
.	.	.	.	.	.	.	16F\	-i	.	16c\	-j	.	16a\	-i	.	16ff\	-i	.	.	.	.
=27	=27	=27	=27	=27	=27	=27	=27	=27	=27	=27	=27	=27	=27	=27	=27	=27	=27	=27	=27	=27	=27
4c\yy	.	.	4b-\yy	.	16ff\LL	.	4c\	E-	.	4c\	E-	.	4b-\	E-	.	4ee\	E-	.	4c/	4g\	.
.	.	.	.	.	16ee\	.	.	.	.	.	.	.	.	.	.	.	.	.	.	.	.
.	.	.	.	.	16ee\	.	.	.	.	.	.	.	.	.	.	.	.	.	.	.	.
.	.	.	.	.	16gg\JJ	.	.	.	.	.	.	.	.	.	.	.	.	.	.	.	.
!	!	!	!	!	!LO:TX:t=P:problem=mixed beam	!	!	!	!	!	!	!	!	!	!	!	!	!	!	!	!
4C/yy	.	.	4b-\yy	.	16gg\LL	.	4C/	-ve	.	4c\	-ve	.	4b-\	-ve	.	4ee\	-ve	.	4c/	4g\	.
.	.	.	.	.	16bb-\	.	.	.	.	.	.	.	.	.	.	.	.	.	.	.	.
.	.	.	.	.	16bb-\	.	.	.	.	.	.	.	.	.	.	.	.	.	.	.	.
.	.	.	.	.	16b-/JJ	.	.	.	.	.	.	.	.	.	.	.	.	.	.	.	.
4ryy	.	.	4r	.	16b-\LL	.	4r	.	.	4r	.	.	4r	.	.	4r	.	.	4r	4r	.
.	.	.	.	.	16a\	.	.	.	.	.	.	.	.	.	.	.	.	.	.	.	.
.	.	.	.	.	16dd\	.	.	.	.	.	.	.	.	.	.	.	.	.	.	.	.
.	.	.	.	.	16cc\JJ	.	.	.	.	.	.	.	.	.	.	.	.	.	.	.	.
=28	=28	=28	=28	=28	=28	=28	=28	=28	=28	=28	=28	=28	=28	=28	=28	=28	=28	=28	=28	=28	=28
!	!	!	!	!	!LO:TX:t=P:problem=mixed beam	!	!	!	!	!	!	!	!	!	!	!	!	!	!	!	!
4F\	.	.	8a/	.	8.f/L	.	4.F\	Ad	.	4.c\	Ad	.	4.a\	Ad	.	4.ff\	Ad	.	4A/	4f\	.
.	.	.	4a/	.	.	.	.	.	.	.	.	.	.	.	.	.	.	.	.	.	.
!	!	!	!	!	!	!LO:HP:a	!	!	!	!	!	!	!	!	!	!	!	!	!	!	!
.	.	.	.	.	16ff\Jk	<	.	.	.	.	.	.	.	.	.	.	.	.	.	.	.
4F\	.	.	.	.	8.ff\L	.	.	.	.	.	.	.	.	.	.	.	.	.	4A/	4f\	.
.	.	.	4a/	.	.	.	8F\	te	.	8c\	te	.	8a\	te	.	8ff\	te	.	.	.	.
.	.	.	.	.	16ff\Jk	.	.	.	.	.	.	.	.	.	.	.	.	.	.	.	.
4E-X\	.	.	.	.	8.ff\L	.	8E-X\	su-	.	8c\	su-	.	8a\	su-	.	8ff#X\	su-	.	4r	4r	.
.	.	.	8a/	.	.	.	8E-\	-spi-	.	8c\	-spi-	.	8a\	-spi-	.	8ff#\	-spi-	.	.	.	.
.	.	.	.	.	16ff\Jk	[[	.	.	.	.	.	.	.	.	.	.	.	.	.	.	.
=29	=29	=29	=29	=29	=29	=29	=29	=29	=29	=29	=29	=29	=29	=29	=29	=29	=29	=29	=29	=29	=29
!	!	!	!	!	!LO:TX:t=P:problem=diminuendolike accent	!	!	!	!	!	!	!	!	!	!	!	!	!	!LO:TX:a:t=5	!LO:TX:a:t=5	!
4D\	7 #	.	4a/	.	8.gg^\L	.	4D\	-ra-	.	4c\	-ra-	.	4a\	-ra-	.	(8gg^\L	-ra-	.	0.r	0.r	.
.	.	.	.	.	.	.	.	.	.	.	.	.	.	.	.	8ff#X\J)	.	.	.	.	.
!	!	!	!	!	!LO:SIC:v:s=16ff#\Jk	!	!	!	!	!	!	!	!	!	!	!	!	!	!	!	!
.	.	.	.	.	16ff\Jk	.	.	.	.	.	.	.	.	.	.	.	.	.	.	.	.
!	!	!	!	!	!LO:SIC:v:s=4ff#\	!	!	!	!	!	!	!	!	!	!	!	!	!	!	!	!
4D\	.	.	4a/	.	4ff\	.	4D\	-mus	.	4c\	-muſ	.	4a\	-mus	.	4ff#\	-muſ	.	.	.	.
!	!	!	!LO:TX:b:i:t=Dol	!	!	!	!	!	!	!	!	!	!	!	!	!	!	!	!	!	!
4r	.	.	4r	.	4r	.	4r	.	.	4r	.	.	4r	.	.	4r	.	.	.	.	.
!	!	!	!	!	!	!	!	!	!	!LO:LB:g=original	!	!	!LO:LB:g=original	!	!	!	!	!	!	!	!
=30	=30	=30	=30	=30	=30	=30	=30	=30	=30	=30	=30	=30	=30	=30	=30	=30	=30	=30	=30	=30	=30
!	!	!	!	!	!LO:ACC:color=grey	!	!	!	!	!	!	!	!	!	!	!	!	!	!	!	!
!	!	!LO:DY:rj	!	!	!LO:TX:b:i:t=Dol:rj	!	!	!	!	!	!	!	!	!	!	!	!	!	!	!	!
4G\	.	p	(8a\L	.	8ff#X\L	f	4r	.	.	4r	.	.	4r	.	.	4r	.	.	.	.	.
.	.	.	8b-\	.	8gg\	.	.	.	.	.	.	.	.	.	.	.	.	.	.	.	.
4r	.	.	8cc\	.	8aa\	.	4r	.	.	4r	.	.	4r	.	.	4r	.	.	.	.	.
.	.	.	8dd\	.	8bb-\	.	.	.	.	.	.	.	.	.	.	.	.	.	.	.	.
4r	.	.	8cc\	.	8aa\	.	8r	.	.	8r	.	.	8r	.	.	8r	.	.	.	.	.
.	.	.	8b-\J)	.	8gg\J	.	8D\	ge-	.	8c\	ge-	.	8a\	ge-	.	8gg\	ge-	.	.	.	.
!	!	!	!	!	!	!	!LO:LB:g=original	!	!	!	!	!	!	!	!	!	!	!	!	!	!
=31	=31	=31	=31	=31	=31	=31	=31	=31	=31	=31	=31	=31	=31	=31	=31	=31	=31	=31	=31	=31	=31
4D\	7 #	.	8b-\L	.	(8gg\L	.	4D\	-men-	.	4c\	-men-	.	4a\	-men-	.	(8gg\L	-men-	.	.	.	.
.	.	.	8a\J	.	8ff#X\J)	.	.	.	.	.	.	.	.	.	.	8ff#X\J)	.	.	.	.	.
4D\	.	.	4a\	.	4ff#\	.	4D\	-tes	.	4c\	-tes	.	4a\	-teſ	.	4ff#\	-teſ	.	.	.	.
4r	.	.	4r	.	4r	.	4r	.	.	4r	.	.	4r	.	.	4r	.	.	.	.	.
.	.	.	.	.	.	p	.	.	.	.	.	.	.	.	.	.	.	.	.	.	.
!	!	!	!	!	!LO:LB:g=original	!	!	!	!	!	!	!	!	!	!	!	!	!	!	!	!
=32	=32	=32	=32	=32	=32	=32	=32	=32	=32	=32	=32	=32	=32	=32	=32	=32	=32	=32	=32	=32	=32
!	!	!	!	!	!	!	!	!	!	!	!	!	!LO:TX:b:i:t=Dolce	!	!	!	!	!	!	!	!
!	!	!	!	!	!	!	!LO:TX:a:t=2	!	!	!LO:TX:a:t=2	!	!	!LO:TX:a:t=1	!	!	!LO:TX:b:i:t=Dolce	!	!	!	!	!
4GG/	.	.	4b-\	.	4gg\	.	1.r	.	.	1.r	.	.	2.r	.	.	4gg\	ge-	.	.	.	.
4r	.	.	4.dd\	.	4.bb-\	.	.	.	.	.	.	.	.	.	.	4.bb-\	-men-	.	.	.	.
4r	.	.	.	.	.	.	.	.	.	.	.	.	.	.	.	.	.	.	.	.	.
.	.	.	8cc\	.	8aa\	.	.	.	.	.	.	.	.	.	.	8aa\	-teſ	.	.	.	.
!	!	!	!	!	!	!	!	!	!	!	!	!	!	!	!	!LO:LB:g=original	!	!	!	!	!
=33	=33	=33	=33	=33	=33	=33	=33	=33	=33	=33	=33	=33	=33	=33	=33	=33	=33	=33	=33	=33	=33
4GG/	.	.	8cc\L	.	8aa\L	.	.	.	.	.	.	.	4b-\	et	.	4gg\	et	.	2.r	2.r	.
.	.	.	8b-\J	.	8gg\J	.	.	.	.	.	.	.	.	.	.	.	.	.	.	.	.
4r	.	.	4.b-\	.	4.gg\	.	.	.	.	.	.	.	4.b-\	flen-	.	4.gg\	flen-	.	.	.	.
4r	.	.	.	.	.	.	.	.	.	.	.	.	.	.	.	.	.	.	.	.	.
.	.	.	8a\	.	8ff\	.	.	.	.	.	.	.	8a\	-tes	.	8ff\	-teſ	.	.	.	.
!LO:LB:g=original	!	!	!LO:LB:g=original	!	!	!	!	!	!	!	!	!	!	!	!	!	!	!	!	!	!
=34	=34	=34	=34	=34	=34	=34	=34	=34	=34	=34	=34	=34	=34	=34	=34	=34	=34	=34	=34	=34	=34
*	*	*	*	*	*	*	*	*	*	*	*	*	*	*	*	*	*	*	*	*	*^
!	!	!	!	!	!	!	!	!	!LO:DY:b:rj	!	!	!LO:DY:b:rj	!	!	!LO:DY:b:rj	!	!	!LO:DY:b:rj	!	!	!	!
4G\	.	.	8a/L	.	8ff\L	.	8.G\	in	f	8.g\	in	f	8.b-\	in	f	8.ee\	in	f	4r	4r	.	.
.	.	.	8g/J	.	8ee\J	.	.	.	.	.	.	.	.	.	.	.	.	.	.	.	.	.
.	.	.	.	.	.	.	16G\	chac	.	16g\	chac	.	16a\	chac	.	16ee\	chac	.	.	.	.	.
4G\	.	.	4.g/	.	4.ee\	.	8G\	la-	.	8g\	la-	.	8a\	la-	.	8ee\	la-	.	4r	4r	.	.
.	.	.	.	.	.	.	8G\	-chri-	.	8g\	-chri-	.	8a\	-chri-	.	8ee\	-chri-	.	.	.	.	.
!	!	!LO:HP:a	!	!	!	!	!	!	!	!	!	!	!	!	!	!	!	!	!	!	!LO:DY:rj	!LO:DY:b=2:rj
8G\L	6	<	.	.	.	.	8G\	-ma-	.	8g\	-ma-	.	8a\	-ma-	.	8ee\	-ma-	.	4A/	4a\	f	f
8G#X\J	.	.	8f/	.	8dd\	f	8G#X\	-rum	.	8f\	-rum	.	8g\	-rum	.	8dd\	-rum	.	.	.	.	.
*	*	*	*	*	*	*	*	*	*	*	*	*	*	*	*	*	*	*	*	*	*v	*v
=35	=35	=35	=35	=35	=35	=35	=35	=35	=35	=35	=35	=35	=35	=35	=35	=35	=35	=35	=35	=35	=35
4A\	#	[	8f/L	f	(8dd\L	.	4A\	va-	.	4f\	va-	.	4a\	va-	.	(8dd\L	va-	.	4A/	4a\	.
.	.	.	8e/J	.	8cc#X\J)	.	.	.	.	.	.	.	.	.	.	8cc#X\J)	.	.	.	.	.
4AA/	.	.	4e/	.	4cc#\	.	4AA/	le	.	4e\	le	.	4a\	le	.	4cc#\	-le	.	4A/	4a\	.
4r	.	.	4r	.	4r	.	4r	.	.	4r	.	.	4r	.	.	4r	.	.	4r	4r	.
!	!	!	!	!	!	!	!	!	!	!	!	!	!	!	!	!	!	!	!LO:LB:g=original	!LO:LB:g=original	!
=36	=36	=36	=36	=36	=36	=36	=36	=36	=36	=36	=36	=36	=36	=36	=36	=36	=36	=36	=36	=36	=36
!	!	!	!	!	!LO:TX:a:t=1	!	!	!	!LO:DY:b:rj:t=ffor	!LO:TX:a:t=4	!	!	!LO:TX:a:t=4	!	!	!LO:TX:a:t=1	!	!	!LO:TX:a:t=6	!LO:TX:a:t=6	!
2.r	.	.	2.r	.	2.r	.	8A\	E-	ff	0.r	.	.	0.r	.	.	2.r	.	.	0.r	0.r	.
.	.	.	.	.	.	.	8A\	-ia	.	.	.	.	.	.	.	.	.	.	.	.	.
.	.	.	.	.	.	.	8A\	er-	.	.	.	.	.	.	.	.	.	.	.	.	.
.	.	.	.	.	.	.	8A\	-go	.	.	.	.	.	.	.	.	.	.	.	.	.
.	.	.	.	.	.	.	16A\	ad-	.	.	.	.	.	.	.	.	.	.	.	.	.
.	.	.	.	.	.	.	16A\	-vo-	.	.	.	.	.	.	.	.	.	.	.	.	.
.	.	.	.	.	.	.	16A\	-ca-	.	.	.	.	.	.	.	.	.	.	.	.	.
.	.	.	.	.	.	.	16A\	-ta	.	.	.	.	.	.	.	.	.	.	.	.	.
=37	=37	=37	=37	=37	=37	=37	=37	=37	=37	=37	=37	=37	=37	=37	=37	=37	=37	=37	=37	=37	=37
!	!	!	!LO:TX:b:i:t=Dolce:rj	!	!	!LO:DY:rj	!	!	!	!	!	!	!	!	!	!	!	!LO:DY:b:rj	!	!	!
4A\	.	.	8r	.	8r	p	4A\	nos-	.	.	.	.	.	.	.	8r	.	f	.	.	.
.	.	.	8a/	.	(8aa\L	.	.	.	.	.	.	.	.	.	.	8aa\L	il-	.	.	.	.
4r	.	.	8b-/L	.	8bb-\	.	4AA/	-tra	.	.	.	.	.	.	.	8bb-\	.	.	.	.	.
.	.	.	8a/J	.	8aa\J)	.	.	.	.	.	.	.	.	.	.	8aa\J	.	.	.	.	.
!	!	!LO:HP:a	!	!	!	!	!	!	!	!	!	!	!	!	!	!	!	!	!	!	!
8G\L	.	<	16g/LL	.	16gg\LL	.	4r	.	.	.	.	.	.	.	.	16gg\LL	.	.	.	.	.
.	.	.	16f/	.	16ff\	.	.	.	.	.	.	.	.	.	.	16ff\	.	.	.	.	.
8G#X\J	.	.	16e/	.	16ee\	.	.	.	.	.	.	.	.	.	.	16ee\	.	.	.	.	.
.	.	.	16d/JJ	.	16dd\JJ	.	.	.	.	.	.	.	.	.	.	16dd\JJ	-los	.	.	.	.
=38	=38	=38	=38	=38	=38	=38	=38	=38	=38	=38	=38	=38	=38	=38	=38	=38	=38	=38	=38	=38	=38
4A\	.	[	8d/L	.	8dd\L	.	4A\	mi-	.	.	.	.	.	.	.	(8dd\L	tu-	.	.	.	.
.	.	.	8c#X/J	.	8cc#X\J	.	.	.	.	.	.	.	.	.	.	8cc#X\J)	.	.	.	.	.
4AA/	.	.	4c#/	.	4cc#\	.	8A\	-se-	.	.	.	.	.	.	.	4cc#\	-oſ	.	.	.	.
.	.	.	.	.	.	.	8A\	-ri-	.	.	.	.	.	.	.	.	.	.	.	.	.
4r	.	.	4r	.	4r	.	8A\	-cor-	.	.	.	.	.	.	.	4r	.	.	.	.	.
.	.	.	.	.	.	.	8A\	-des	.	.	.	.	.	.	.	.	.	.	.	.	.
!	!	!	!	!	!	!	!LO:LB:g=original	!	!	!	!	!	!	!	!	!	!	!	!	!	!
=39	=39	=39	=39	=39	=39	=39	=39	=39	=39	=39	=39	=39	=39	=39	=39	=39	=39	=39	=39	=39	=39
4A\	.	.	8r	.	8r	.	4A\	O-	.	.	.	.	.	.	.	8r	.	.	.	.	.
.	.	.	8a/L	.	8aa\L	.	.	.	.	.	.	.	.	.	.	8aa\L	ad	.	.	.	.
!	!	!LO:HP:a	!	!	!	!	!	!	!	!	!	!	!	!	!	!	!	!	!	!	!
4r	.	<	8b-/	.	8bb-\	.	8AA/	-cu-	.	.	.	.	.	.	.	8bb-\	.	.	.	.	.
.	.	.	8a/J	.	8aa\J	.	8AA/	-los	.	.	.	.	.	.	.	8aa\J	.	.	.	.	.
8G\L	.	.	16g/LL	.	(16gg\LL	.	4r	.	.	.	.	.	.	.	.	16gg\LL	nos	.	.	.	.
.	.	.	16f/	.	16ff\	.	.	.	.	.	.	.	.	.	.	16ff\JJ	.	.	.	.	.
8G#X\J	.	[[	16e/	.	16ee\	.	.	.	.	.	.	.	.	.	.	16ee\LL	con-	.	.	.	.
.	.	.	16d/JJ	.	16dd\JJ)	.	.	.	.	.	.	.	.	.	.	16dd\JJ	.	.	.	.	.
=40	=40	=40	=40	=40	=40	=40	=40	=40	=40	=40	=40	=40	=40	=40	=40	=40	=40	=40	=40	=40	=40
!	!	!	!	!	!	!	!	!	!	!	!	!LO:DY:b:rj	!	!	!	!	!	!	!	!	!
4A\	.	.	8d/L	.	8dd\L	.	4r	.	.	4r	.	f	4r	.	.	(8dd\L	-ver-	.	1.r	1.r	.
.	.	.	8c#X/J	.	8cc#X\J	.	.	.	.	.	.	.	.	.	.	8cc#X\J)	.	.	.	.	.
!	!	!	!	!	!	!	!	!	!	!	!	!	!	!	!LO:DY:b	!	!	!	!	!	!
4AA/	.	.	4c#/	.	4cc#\	.	4r	.	.	4r	.	.	4r	.	f	4cc#\	-te	.	.	.	.
!	!	!	!	!	!	!	!	!	!LO:DY:b	!	!	!	!	!	!	!	!	!	!	!	!
4A\	.	f	8r	.	8r	.	8r	.	f	8r	.	.	8r	.	.	8r	.	.	.	.	.
.	.	.	8cc#X\	f	8aa\	f	8A\	et	.	8e\	et	.	8a\	et	.	8aa\	et	.	.	.	.
!	!	!	!	!	!	!	!	!	!	!	!	!	!	!	!	!LO:LB:g=original	!	!	!	!	!
=41	=41	=41	=41	=41	=41	=41	=41	=41	=41	=41	=41	=41	=41	=41	=41	=41	=41	=41	=41	=41	=41
4BBn/	6\	.	8r	.	8r	.	4Bn\	Je-	.	4e\	Je-	.	4dd\	Je-	.	4gg#X\	Je-	.	.	.	.
.	.	.	8dd\	.	8gg#X\	.	.	.	.	.	.	.	.	.	.	.	.	.	.	.	.
*	*	*	*tremolo	*	*tremolo	*	*	*	*	*	*	*	*	*	*	*	*	*	*	*	*
4BB/	.	.	8dd\L	.	8gg#\L	.	4B\	-sum	.	4e\	-sum	.	4dd\	-sum	.	4gg#\	-sum	.	.	.	.
.	.	.	8dd\	.	8gg#\	.	.	.	.	.	.	.	.	.	.	.	.	.	.	.	.
4BB/	.	.	8dd\	.	8gg#\	.	4r	.	.	4r	.	.	4r	.	.	4r	.	.	.	.	.
.	.	.	8dd\J	.	8gg#\J	.	.	.	.	.	.	.	.	.	.	.	.	.	.	.	.
*	*	*	*Xtremolo	*	*Xtremolo	*	*	*	*	*	*	*	*	*	*	*	*	*	*	*	*
=42	=42	=42	=42	=42	=42	=42	=42	=42	=42	=42	=42	=42	=42	=42	=42	=42	=42	=42	=42	=42	=42
*	*	*	*	*	*	*	*	*	*	*	*	*	*	*	*	*	*	*	*	*	*^
!	!	!	!	!	!	!	!	!	!	!	!	!	!	!	!	!	!	!	!	!	!	!LO:DY:b=2:rj
4C#X/	6 5	.	8r	.	8r	.	4c#X\	Je-	.	4e\	Je-	.	4a\	Je-	.	4ggn\	Je-	.	4A/	4a\	f	f
.	.	.	8ee\	.	8ggn\	.	.	.	.	.	.	.	.	.	.	.	.	.	.	.	.	.
*	*	*	*tremolo	*	*tremolo	*	*	*	*	*	*	*	*	*	*	*	*	*	*	*	*	*
4C#/	.	.	8ee\L	.	8gg\L	.	4c#\	-sum	.	4e\	-sum	.	4a\	-sum	.	4gg\	-sum	.	4A/	4a\	.	.
.	.	.	8ee\	.	8gg\	.	.	.	.	.	.	.	.	.	.	.	.	.	.	.	.	.
4C#/	.	.	8ee\	.	8gg\	.	8r	.	.	8r	.	.	8r	.	.	8r	.	.	4r	4r	.	.
.	.	.	8ee\J	.	8gg\J	.	16c#\	be-	.	16e\	be-	.	16a\	be-	.	16gg\	be-	.	.	.	.	.
.	.	.	.	.	.	.	16c#\	-ne-	.	16e\	-ne-	.	16a\	-ne-	.	16gg\	-ne-	.	.	.	.	.
*	*	*	*Xtremolo	*	*Xtremolo	*	*	*	*	*	*	*	*	*	*	*	*	*	*	*	*	*
*	*	*	*	*	*	*	*	*	*	*	*	*	*	*	*	*	*	*	*	*	*v	*v
!	!	!	!LO:LB:g=original	!	!LO:LB:g=original	!	!	!	!	!LO:LB:g=original	!	!	!LO:LB:g=original	!	!	!	!	!	!	!	!
=43	=43	=43	=43	=43	=43	=43	=43	=43	=43	=43	=43	=43	=43	=43	=43	=43	=43	=43	=43	=43	=43
4D\	.	.	4a/	.	4ff\	.	4d\	-di-	.	4d\	-di-	.	4a\	-di-	.	4ffn\	-di-	.	4A/	4a\	.
4D\	.	.	4a/	.	4ff\	.	4D/	-ctum	.	4d\	-ctum	.	4a\	-ctum	.	4ff\	-ctum	.	4A/	4a\	.
4r	.	.	4r	.	4r	.	4r	.	.	4r	.	.	4r	.	.	4r	.	.	4r	4r	.
!LO:LB:g=original	!	!	!	!	!	!	!	!	!	!	!	!	!	!	!	!	!	!	!	!	!
=44	=44	=44	=44	=44	=44	=44	=44	=44	=44	=44	=44	=44	=44	=44	=44	=44	=44	=44	=44	=44	=44
!LO:TX:a:t=3	!	!	!LO:TX:a:t=2	!	!LO:TX:a:t=2	!	!	!	!LO:DY:b:rj	!	!	!LO:DY:b:rj	!	!	!LO:DY:b:rj	!	!	!LO:DY:b:rj	!LO:TX:a:t=15	!LO:TX:a:t=15	!
1.r	.	.	1.r	.	1.r	.	2D\	fru-	p	2d\	fru-	p	2a\	Fru-	p	2ff\	fru-	p	2.r	2.r	.
.	.	.	.	.	.	.	4D\	-ctum	.	4d\	-ctum	.	4a\	-ctum	.	4ff\	-ctu(m)	.	.	.	.
=45	=45	=45	=45	=45	=45	=45	=45	=45	=45	=45	=45	=45	=45	=45	=45	=45	=45	=45	=45	=45	=45
.	.	.	.	.	.	.	2C#X/	ven-	.	2e\	ven-	.	2b-\	ven-	.	2gg\	ven-	.	2.r	2.r	.
.	.	.	.	.	.	.	4D/	-triſ	.	4d\	-tris	.	4a\	-triſ	.	4ff\	-triſ	.	.	.	.
=46	=46	=46	=46	=46	=46	=46	=46	=46	=46	=46	=46	=46	=46	=46	=46	=46	=46	=46	=46	=46	=46
2.r	.	.	4r	.	4r	.	4AA/	tu-	.	4c#X\	tu-	.	4g\	tu-	.	4ee\	tu-	.	2.r	2.r	.
!	!	!	!LO:TX:b:i:t=Do	!	!LO:TX:b:i:t=Dolce	!	!	!	!	!	!	!	!	!	!	!	!	!	!	!	!
.	.	.	8r	.	8r	.	4D/	-i	.	4d\	-i	.	4f\	-i	.	4dd\	-i	.	.	.	.
.	.	.	8a/L	.	8aa\L	.	.	.	.	.	.	.	.	.	.	.	.	.	.	.	.
.	.	.	8b-/	.	8gg\	.	4r	.	.	4r	.	.	4r	.	.	4r	.	.	.	.	.
.	.	.	8a/J	.	8ff\J	f	.	.	.	.	.	.	.	.	.	.	.	.	.	.	.
=47	=47	=47	=47	=47	=47	=47	=47	=47	=47	=47	=47	=47	=47	=47	=47	=47	=47	=47	=47	=47	=47
!	!	!LO:DY:rj	!	!	!	!	!	!	!	!	!	!	!LO:TX:a:t=1	!	!	!LO:TX:a:t=1	!	!	!	!	!
4D\	.	f	(8g/L	.	8ee\L	.	2.r	.	.	2.r	.	.	2.r	.	.	2.r	.	.	2.r	2.r	.
.	.	.	8f/	.	8dd\	.	.	.	.	.	.	.	.	.	.	.	.	.	.	.	.
4D\	.	.	8e/	.	8cc#X\	.	.	.	.	.	.	.	.	.	.	.	.	.	.	.	.
.	.	.	8f/	.	8dd\	.	.	.	.	.	.	.	.	.	.	.	.	.	.	.	.
4r	.	.	8e/	.	8cc#\	.	.	.	.	.	.	.	.	.	.	.	.	.	.	.	.
!	!	!	!	!	!	!	!	!	!	!	!	!LO:DY:b	!	!	!	!	!	!	!	!	!
.	.	.	8f/J)	.	8dd\J	.	.	.	.	.	.	p	.	.	.	.	.	.	.	.	.
=48	=48	=48	=48	=48	=48	=48	=48	=48	=48	=48	=48	=48	=48	=48	=48	=48	=48	=48	=48	=48	=48
!LO:TX:a:t=2	!	!	!LO:TX:a:t=2	!	!LO:TX:a:t=2	!	!LO:N:vis=4	!	!	!	!	!	!	!	!	!	!	!	!	!	!
1.r	.	.	1.r	.	1.r	.	4.D\	no-	.	4.d\	no-	.	4.a\	no-	.	4.ff\	no-	.	2.r	2.r	.
.	.	.	.	.	.	.	8D\	-biſ	.	8d\	-bis	.	8a\	-bis	.	8ff\	-bis	.	.	.	.
!	!	!	!	!	!	!	!LO:N:vis=8	!	!	!	!	!	!	!	!	!	!	!	!	!	!
.	.	.	.	.	.	.	4D\	pos[t]	.	4d\	pos[t]	.	4a\	pos[t]	.	4ff\	pos[t]	.	.	.	.
!	!	!	!	!	!	!	!LO:LB:g=original	!	!	!	!	!	!	!	!	!	!	!	!	!	!
=49	=49	=49	=49	=49	=49	=49	=49	=49	=49	=49	=49	=49	=49	=49	=49	=49	=49	=49	=49	=49	=49
.	.	.	.	.	.	.	8C#X/	choc	.	8e\	choc	.	8b-\	choc	.	8gg\	choc	.	2.r	2.r	.
.	.	.	.	.	.	.	8C#/	e-	.	8e\	e-	.	8b-\	e-	.	8gg\	e-	.	.	.	.
.	.	.	.	.	.	.	8C#/	-xi-	.	8e\	-xi-	.	8b-\	-xi-	.	8gg\	-xi-	.	.	.	.
.	.	.	.	.	.	.	8C#/	-li-	.	8e\	-li-	.	8b-\	-li-	.	8gg\	-li-	.	.	.	.
.	.	.	.	.	.	.	8D/	-um	.	8d\	-um	.	8a\	-um	.	8ff\	-um	.	.	.	.
.	.	.	.	.	.	.	8D/	o-	.	8d\	o-	.	8a\	o-	.	8ff\	o-	.	.	.	.
=50	=50	=50	=50	=50	=50	=50	=50	=50	=50	=50	=50	=50	=50	=50	=50	=50	=50	=50	=50	=50	=50
!	!	!	!	!	!LO:TX:b:i:t=Dolce	!	!	!	!	!	!	!	!	!	!	!	!	!	!	!	!
4D\	5 3	.	4r	.	4r	.	4AA/	-sten-	.	4c#X\	-sten-	.	4g\	-sten-	.	4ee\	-sten-	.	2.r	2.r	.
4D\	.	.	8r	.	8r	.	4D/	-de	.	4d\	-de	.	4f\	-de	.	4dd\	-de	.	.	.	.
.	.	.	8f/L	.	(8dd\L	.	.	.	.	.	.	.	.	.	.	.	.	.	.	.	.
4D\	.	.	8f#X/	.	8a\)	.	4r	.	.	4r	.	.	4r	.	.	4r	.	.	.	.	.
.	.	.	8f#/J	.	8a\J|	.	.	.	.	.	.	.	.	.	.	.	.	.	.	.	.
=51	=51	=51	=51	=51	=51	=51	=51	=51	=51	=51	=51	=51	=51	=51	=51	=51	=51	=51	=51	=51	=51
!	!	!	!	!	!	!	!LO:TX:a:t=3	!	!	!LO:TX:a:t=3	!	!	!LO:TX:a:t=3	!	!	!LO:TX:a:t=3	!	!	!	!	!
4D\	.	.	4g/	.	(8ccn\L	.	1.r	.	.	1.r	.	.	1.r	.	.	1.r	.	.	2.r	2.r	.
.	.	.	.	.	8b-\J)	.	.	.	.	.	.	.	.	.	.	.	.	.	.	.	.
4D\	6 4	.	8r	.	8r	.	.	.	.	.	.	.	.	.	.	.	.	.	.	.	.
.	.	.	8g/L	.	8b-\L	.	.	.	.	.	.	.	.	.	.	.	.	.	.	.	.
4D\	#7	.	8g/	.	8cc#X\	.	.	.	.	.	.	.	.	.	.	.	.	.	.	.	.
.	.	.	8g/J	.	8cc#\J	.	.	.	.	.	.	.	.	.	.	.	.	.	.	.	.
=52	=52	=52	=52	=52	=52	=52	=52	=52	=52	=52	=52	=52	=52	=52	=52	=52	=52	=52	=52	=52	=52
4D\	8	.	4f/	.	4dd^\	.	.	.	.	.	.	.	.	.	.	.	.	.	2.r	2.r	.
4D\	.	.	8r	.	8r	.	.	.	.	.	.	.	.	.	.	.	.	.	.	.	.
.	.	.	8f/L	.	(8dd\L	.	.	.	.	.	.	.	.	.	.	.	.	.	.	.	.
4D\	5 3	.	8f#X/	.	8a\)	.	.	.	.	.	.	.	.	.	.	.	.	.	.	.	.
.	.	.	8f#/J	.	8a\J|	.	.	.	.	.	.	.	.	.	.	.	.	.	.	.	.
=53	=53	=53	=53	=53	=53	=53	=53	=53	=53	=53	=53	=53	=53	=53	=53	=53	=53	=53	=53	=53	=53
4D\	6 4	.	4g/	.	8ccn\L	.	2.r	.	.	2.r	.	.	2.r	.	.	2.r	.	.	2.r	2.r	.
.	.	.	.	.	8b-\J	.	.	.	.	.	.	.	.	.	.	.	.	.	.	.	.
4D\	7 #	.	8r	.	8r	.	.	.	.	.	.	.	.	.	.	.	.	.	.	.	.
.	.	.	8g/L	.	8b-\L	.	.	.	.	.	.	.	.	.	.	.	.	.	.	.	.
4D\	7 #	.	8g/	.	8cc#X\	.	.	.	.	.	.	.	.	.	.	.	.	.	.	.	.
.	.	.	8g/J	.	8cc#\J	.	.	.	.	.	.	.	.	.	.	.	.	.	.	.	.
!	!	!	!	!	!	!	!	!	!	!	!	!	!	!	!	!LO:LB:g=original	!	!	!	!	!
=54	=54	=54	=54	=54	=54	=54	=54	=54	=54	=54	=54	=54	=54	=54	=54	=54	=54	=54	=54	=54	=54
!	!	!	!	!	!	!	!	!	!LO:DY:b:rj	!	!	!LO:DY:b:rj	!	!	!	!	!	!LO:DY:b:rj	!	!	!
4D\	8	.	4f/	.	4dd^\	.	2.D\	O	p	2.d\	O	p	2.a\	O	.	2.ff\	O	p	2.r	2.r	.
4r	.	.	4r	.	4r	.	.	.	.	.	.	.	.	.	.	.	.	.	.	.	.
4r	.	.	4r	.	4r	.	.	.	.	.	.	.	.	.	.	.	.	.	.	.	.
!	!	!	!	!	!	!	!	!	!	!LO:LB:g=original	!	!	!	!	!	!	!	!	!	!	!
=55	=55	=55	=55	=55	=55	=55	=55	=55	=55	=55	=55	=55	=55	=55	=55	=55	=55	=55	=55	=55	=55
!LO:TX:a:t=4.	!	!	!LO:TX:a:t=4	!	!	!	!	!	!	!	!	!	!	!	!	!	!	!	!	!	!
0.r	.	.	0.r	.	0.r	.	4C#X/	cle-	.	4e\	cle-	.	4b-\	cle-	.	4gg\	cle-	.	2.r	2.r	.
.	.	.	.	.	.	.	4C#/	-mens	.	4e\	-mens	.	4b-\	-mens	.	4gg\	-mens	.	.	.	.
.	.	.	.	.	.	.	4D/	O	.	4d\	O	.	4a\	O	.	4gg\	O	.	.	.	.
!	!	!	!	!	!	!	!	!	!	!	!	!	!LO:LB:g=original	!	!	!	!	!	!	!	!
=56	=56	=56	=56	=56	=56	=56	=56	=56	=56	=56	=56	=56	=56	=56	=56	=56	=56	=56	=56	=56	=56
.	.	.	.	.	.	.	4D/	pi-	.	4d\	pi-	.	4b-\	pi-	.	4ff\	pi-	.	2.r	2.r	.
.	.	.	.	.	.	.	4D/	-a	.	4d\	-a	.	4b-\	-a	.	4ff\	-a	.	.	.	.
.	.	.	.	.	.	.	4F\	O	.	4d\	O	.	4b-\	O	.	4ff\	O	.	.	.	.
=57	=57	=57	=57	=57	=57	=57	=57	=57	=57	=57	=57	=57	=57	=57	=57	=57	=57	=57	=57	=57	=57
.	.	.	.	.	.	.	8G\	dul-	.	8c#X\	dul-	.	8g\	dul-	.	8ee\	dul-	.	2.r	2.r	.
.	.	.	.	.	.	.	8G\	-ciſ	.	8c#\	-ciſ	.	8g\	-ciſ	.	8ee\	-ciſ	.	.	.	.
.	.	.	.	.	.	.	4G\	vir-	.	4c#\	vir-	.	4g\	vir-	.	4ee\	vir-	.	.	.	.
.	.	.	.	.	.	.	8A\	-go	.	8c#\	-go	.	8g\	-go	.	8ee\	-go	.	.	.	.
.	.	.	.	.	.	.	8A\	Ma-	.	8c#\	Ma-	.	8g\	Ma-	.	8ee\	Ma-	.	.	.	.
=58	=58	=58	=58	=58	=58	=58	=58	=58	=58	=58	=58	=58	=58	=58	=58	=58	=58	=58	=58	=58	=58
!	!	!	!	!	!	!	!	!	!	!LO:TX:a:t=d	!	!	!	!	!	!	!	!	!	!	!
.	.	.	.	.	.	.	4D\	-ri-	.	4d\	-ri-	.	4f\	-ri-	.	4dd\	-ri-	.	2.r	2.r	.
.	.	.	.	.	.	.	4D\	-a	.	4d\	-a	.	4f\	-a	.	4dd\	-a	.	.	.	.
!LO:TX:b:i:t=Finiſ	!	!	!	!	!	!	!	!	!	!LO:TX:b:i:t=Finiſ	!	!	!	!	!	!	!	!	!	!LO:TX:b:i:t=Finiſ	!
!LO:TX:b:i:t=w Gostyniu D 15 Kwiet\n1821	!	!	!LO:TX:b:i:t=D 15 Kwietni\nw Gostyni. 1821	!	!LO:TX:b:i:t=w Gostyniu\nD 15 Kwi\n1821	!	!LO:TX:b:i:t=w Gostyniu D, 15 Kwietn\n1821	!	!	!LO:TX:b:i:t=w Gostyniu, D. 15 Kwietn\n1821	!	!	!	!	!	!LO:TX:b:i:t=w Gostyniu, D 15 Kwietnia\n1821	!	!	!LO:TX:b:i:t=w Gostyniu Kwietnia D 15\n1821	!	!
.	.	.	.	.	.	.	4r	.	.	4r	.	.	4r	.	.	4r	.	.	.	.	.
==	==	==	==	==	==	==	==	==	==	==	==	==	==	==	==	==	==	==	==	==	==
*-	*-	*-	*-	*-	*-	*-	*-	*-	*-	*-	*-	*-	*-	*-	*-	*-	*-	*-	*-	*-	*-
!!!system-decoration: {(s1,s2)}[(s3,s4,s5,s6)][(s7,s8,s9)]
!!!RDF**kern: > = above
!!!RDF**kern: < = below
!!!RDF**kern: | = vertical stroke
!!!RDF**dynam: f = "for"
!!!RDF**dynam: p = "p:"
!!!ENC: Andrzej Gręziak
!!!END: 2020-11-06
!!!ENC: Andrzej Kubiczek
!!!END: 2021-11-19
!!!YEC: Copyright 2022 Narodowy Instytut Fryderyka Chopina (https://polishscores.org)
!!!YEM: License CC-BY-4.0 (https://creativecommons.org/licenses/by/4.0)
